icons/themes/default/calendar.svg

<svg viewBox="0 0 16 16" fill="none" xmlns="http://www.w3.org/2000/svg">
<path fill-rule="evenodd" clip-rule="evenodd" d="M5.62 0.669922C5.62 0.393779 5.39614 0.169922 5.12 0.169922C4.84385 0.169922 4.62 0.393779 4.62 0.669922V1.94992H3.78C3.17531 1.94992 2.59538 2.19013 2.1678 2.61772C1.74021 3.0453 1.5 3.62523 1.5 4.22992V5.55992V11.7899C1.5 12.3946 1.74021 12.9745 2.1678 13.4021C2.59538 13.8297 3.17531 14.0699 3.78 14.0699H8.09C8.36614 14.0699 8.59 13.8461 8.59 13.5699C8.59 13.2938 8.36614 13.0699 8.09 13.0699H3.78C3.44052 13.0699 3.11495 12.9351 2.8749 12.695C2.63486 12.455 2.5 12.1294 2.5 11.7899V6.05992H13.52V8.31992C13.52 8.59606 13.7439 8.81992 14.02 8.81992C14.2961 8.81992 14.52 8.59606 14.52 8.31992V5.55992V4.22992C14.52 3.62523 14.2798 3.0453 13.8522 2.61772C13.4246 2.19013 12.8447 1.94992 12.24 1.94992H11.4V0.669922C11.4 0.393779 11.1761 0.169922 10.9 0.169922C10.6239 0.169922 10.4 0.393779 10.4 0.669922V1.94992H5.62V0.669922ZM3.78 2.94992H5.11889L5.12 2.94992L5.1211 2.94992H10.8989L10.9 2.94992L10.9011 2.94992H12.24C12.5795 2.94992 12.905 3.08478 13.1451 3.32482C13.3851 3.56487 13.52 3.89044 13.52 4.22992V5.05992H2.5V4.22992C2.5 3.89044 2.63486 3.56487 2.8749 3.32482C3.11495 3.08478 3.44052 2.94992 3.78 2.94992ZM12.02 9.50992C11.3556 9.50992 10.7185 9.77384 10.2487 10.2436C9.77892 10.7134 9.515 11.3506 9.515 12.0149C9.515 12.6793 9.77892 13.3164 10.2487 13.7862C10.7185 14.256 11.3556 14.5199 12.02 14.5199C12.5139 14.5199 12.9928 14.374 13.3991 14.1061L14.5564 15.2635C14.7517 15.4587 15.0683 15.4587 15.2635 15.2635C15.4588 15.0682 15.4588 14.7516 15.2635 14.5564L14.1072 13.4C14.3777 12.9925 14.525 12.5113 14.525 12.0149C14.525 11.3506 14.2611 10.7134 13.7913 10.2436C13.3215 9.77384 12.6844 9.50992 12.02 9.50992ZM13.134 13.0268C13.385 12.7505 13.525 12.3899 13.525 12.0149C13.525 11.6158 13.3664 11.233 13.0842 10.9507C12.802 10.6685 12.4192 10.5099 12.02 10.5099C11.6208 10.5099 11.238 10.6685 10.9558 10.9507C10.6736 11.233 10.515 11.6158 10.515 12.0149C10.515 12.4141 10.6736 12.7969 10.9558 13.0791C11.238 13.3614 11.6208 13.5199 12.02 13.5199C12.3932 13.5199 12.7522 13.3813 13.028 13.1325C13.0425 13.1129 13.0587 13.0941 13.0764 13.0764C13.0946 13.0582 13.1139 13.0417 13.134 13.0268Z" fill="currentColor"/>
</svg>

<svg xmlns="http://www.w3.org/2000/svg" fill="none" viewBox="0 0 16 16">
  <path fill="currentColor" fill-rule="evenodd" d="M5.62.67a.5.5 0 0 0-1 0v1.28h-.84A2.28 2.28 0 0 0 1.5 4.23V11.79a2.28 2.28 0 0 0 2.28 2.28h4.31a.5.5 0 1 0 0-1H3.78a1.28 1.28 0 0 1-1.28-1.28V6.06h11.02v2.26a.5.5 0 0 0 1 0V4.23a2.28 2.28 0 0 0-2.28-2.28h-.84V.67a.5.5 0 0 0-1 0v1.28H5.62V.67ZM3.78 2.95h8.46a1.28 1.28 0 0 1 1.28 1.28v.83H2.5v-.83a1.28 1.28 0 0 1 1.28-1.28Zm8.24 6.56a2.505 2.505 0 1 0 1.38 4.596l1.156 1.158a.5.5 0 0 0 .708-.708L14.107 13.4a2.504 2.504 0 0 0-2.087-3.89Zm1.114 3.517a1.505 1.505 0 1 0-.106.106.5.5 0 0 1 .106-.106Z" clip-rule="evenodd"/>
</svg>
